!!! OTL: Berkowitz503
!!! Chapter: 1
!!! Section: IV
!!! Page: 125
!!! Mode: 
!!! Encoder: DJB
**kern
*staff1
*I"Piano
=1-
*clefG2
*k[b-e-a-d-g-]
*b-:
*M3/4
4r
4r
8b-/L
8d-/J
=2
4c/
[4g-/
12g-/L]
12f/
12e-/J
=3
4d-/
8.b-\L
16cc\Jk
4an/
=4
8dd-\L
8cc\J
[4b-\
16b-\LL]
16cc\
16b-\
16a-\JJ
=5
4g-/
4ee-\
[4cc\
=6
4cc\]
4f/
12an\L
12b-\
12cc\J
=7
[4dd-\
8dd-\L_
32dd-\LL]
32cc\
32b-\
32a-\JJJ
8g-\L
8ee-\J
=8
!!linebreak:original
12f/L
12an/
12cc/J
12ee-\L
12dd-\
12cc\J
8dd-\
8r
=9
8.b-/L
16g-/Jk
4f/
8r
[8cc\
=10
16cc\LL]
16b-\
16a-\
16cc\JJ
8.cc\L
32dd-\LL
32cc\JJJ
4b-\
==
*-
